X:50
T:Do Something
C:Jethro Burns solo from Jazz from the Hills CD
N:TablEdited by Mike Perry
L:1/8
Q:1/4=210
M:4/4
K:G
z4 ze'2e' | "D7"ze'2e'2e2f | "G"gd BG FG Bd | "Eb"G^A ^c=f2f2=A | "G"fe dB ag dB | 
"E"bf dB2d2{^A}B | "A"^ce g2 b2 ag | "D7"fg ec BA dB | "G"GF GA Bg A{^A}B | "D7"c2 Bd2G,2d' | 
K:C
"G"e'^d' e'_b =b_b =b^f | "Eb"g^f gd ^d=d ^d{a}_b | "G"b_b =b^f gf g=f | "E"^fd ed2[e2e2]{d}^d | 
"A"eg b^d eg b2 | "D7"eg _ba ge d^f | "G"g2 ^cd ed B2 | cB G2 AG D2 | b2 a2 f2 A_B | 
"G7"Be G^F =FA Bd | "C"cd ef ge dc | AB cd e^f g^g | "A"ag e_b ge =ba | ec' ge ^c'2 e2 | 
"D7"d'A d^c' A^c =c'2 | cB AB b2 a2 | "G"gd BG ^FG Bd | "Eb"G_B ^cf2f2A | "G"^fe dB ag dB | 
"E"b^f dB2d2{_B}=B | (3"A"^cdA g2 b2 a2 | "D7"_ba g^f ef ga | (3"G"cdc ^f2 ag dB | 
"D7"^cd ec dB G2 | "Cool Jethro Lick"z8 | "G"_bb a2 g2 de | ff e2 d4 | 


